X: 27098
T: Miss Linda MacFarlane
R: reel
M: 4/4
K: Gmajor
V:1
"D7"D2|"G"G2 FG "G"DGBd|"D7"d2 cA "G"G2 FG|"C"E2 ed "G"cBAG|"Am"B2 A2 "D7"A2 D2|
V:2
A2|B2 AB GBdg|g2 f2 g2 B2|c2 gf ed c2|E2 E2 F2 c2|
V:1
"G"G2 FG "G"DGBd|"D7"d2 cA "Em"G2 "D"FG|"C"E2 ed "D7"cFBA|"G"G2 "D7"GA ""G2 Bc||
V:2
B2 AB GBdg|g2 f2 g2 B2|c2 gf fddc|B2 Bc B2 Bc||
V:1
"G"d2 Bc "G7"dBgf|"C"e2 cd ecgd|"G"d2 GA Bdgd|"Am"B2 A2 "D7"AcBA|
V:2
B2 G2 DGBG|c2 G2 cGeB|B2 G2 DGBG|E2 E2 F2 c2|
V:1
"G"G2 FG DGBd|"D7"d2 cA "Em"G2 "D"FG|"C"E2 ed "D7"cFBA|"G"G2 "D"GA ""G2||
V:2
B2 AB GBdg|g2 f2 g2 B2|c2 gf fddc|B2 Bc B2||

